icons/light/php.svg

<svg width="16" height="16" viewBox="0 0 16 16" fill="none" xmlns="http://www.w3.org/2000/svg">
<path d="M8 12.0533C3.58 12.0533 0 10.24 0 8C0 5.76 3.58 3.94667 8 3.94667C12.42 3.94667 16 5.76 16 8C16 10.24 12.42 12.0533 8 12.0533ZM4.54 6.75334C4.9 6.75334 5.14667 6.82 5.26667 6.96C5.38667 7.09334 5.41333 7.33334 5.35333 7.64667C5.28667 8 5.16 8.22667 4.96667 8.37334C4.78 8.52 4.49333 8.59334 4.10667 8.59334H3.52667L3.88 6.75334H4.54ZM2.20667 10.4533H3.16667L3.39333 9.28667H4.21333C4.57333 9.28667 4.86667 9.24667 5.1 9.17334C5.33333 9.09334 5.54667 8.96667 5.74 8.78667C5.9 8.64 6.02667 8.48 6.12667 8.3C6.22667 8.12667 6.3 7.92667 6.33333 7.71334C6.44 7.19334 6.36667 6.78667 6.11333 6.5C5.85333 6.20667 5.45333 6.06667 4.9 6.06667H3.06L2.20667 10.4533ZM7.04 4.9L6.18667 9.28667H7.13333L7.62667 6.77334H8.38667C8.62667 6.77334 8.78667 6.81334 8.86 6.89334C8.93333 6.97334 8.94667 7.12 8.90667 7.33334L8.52667 9.28667H9.49333L9.88667 7.24C9.97333 6.82667 9.90667 6.52667 9.70667 6.33334C9.50667 6.15334 9.14 6.06667 8.60667 6.06667H7.76L8 4.9H7.04ZM12 6.75334C12.3667 6.75334 12.6067 6.82 12.7267 6.96C12.8467 7.09334 12.8733 7.33334 12.8133 7.64667C12.7467 8 12.62 8.22667 12.4333 8.37334C12.24 8.52 11.9533 8.59334 11.5667 8.59334H11L11.3333 6.75334H12ZM9.66667 10.4533H10.6267L10.8533 9.28667H11.6667C12.0333 9.28667 12.3333 9.24667 12.5667 9.17334C12.8 9.09334 13 8.96667 13.2 8.78667C13.36 8.64 13.4933 8.48 13.5867 8.3C13.6867 8.12667 13.76 7.92667 13.8 7.71334C13.9 7.19334 13.8267 6.78667 13.5733 6.5C13.3333 6.20667 12.9133 6.06667 12.36 6.06667H10.5267L9.66667 10.4533Z" fill="#424242"/>
</svg>

<svg xmlns="http://www.w3.org/2000/svg" width="16" height="16" fill="none" xmlns:v="https://vecta.io/nano"><path d="M8 12.053c-4.42 0-8-1.813-8-4.053s3.58-4.053 8-4.053S16 5.76 16 8s-3.58 4.053-8 4.053zm-3.46-5.3c.36 0 .607.067.727.207.12.133.147.373.087.687-.067.353-.193.58-.387.727-.187.147-.473.22-.86.22h-.58l.353-1.84h.66zm-2.333 3.7h.96l.227-1.167h.82c.36 0 .653-.04.887-.113.233-.08.447-.207.64-.387.16-.147.287-.307.387-.487.1-.173.173-.373.207-.587.107-.52.033-.927-.22-1.213-.26-.293-.66-.433-1.213-.433H3.06l-.853 4.387zM7.04 4.9l-.853 4.387h.947l.493-2.513h.76c.24 0 .4.04.473.12s.087.227.047.44l-.38 1.953h.967l.393-2.047c.087-.413.02-.713-.18-.907-.2-.18-.567-.267-1.1-.267H7.76L8 4.9h-.96zM12 6.753c.367 0 .607.067.727.207.12.133.147.373.087.687-.067.353-.193.58-.38.727-.193.147-.48.22-.867.22H11l.333-1.84H12zm-2.333 3.7h.96l.227-1.167h.813c.367 0 .667-.04.9-.113.233-.08.433-.207.633-.387a1.78 1.78 0 0 0 .387-.487c.1-.173.173-.373.213-.587.1-.52.027-.927-.227-1.213-.24-.293-.66-.433-1.213-.433h-1.833l-.86 4.387z" fill="#424242"/></svg>
